X:0116
T:My Lodging is on the Cold Ground.
T:Believe Me If All Those Endearing Young Charms
M:6/8
L:1/8
Q:3/8=80
I: :: ::
Z:Jack Campin * www.campin.me.uk * 2009
K:D
(F/E/)|DED DFA|B3 d2B|AFD DEF|EEE E2
(F/E/)|DED DFA|B3 d2B|AGF EDE|DDD D2:|
 A    |ABc d2c|B3 d2B|AGF EFD|EEE EFE|
       DED DFA|B3 d2B|AGF EDE|DDD D2:|

